X:63
T:Kate of Colerain
O:No 63 Wm Clarke of Feltwell MS  1858
N:Bar 4: quavers shown as semi qvrs in MS
I:abc2nwc
M:6/8
L:1/8
K:C
G/2F/2|EGc ceg|dec BdG/2F/2|EGc ceg|(a/2g/2)(f/2e/2)(d/2c/2)"^*"ed G/2F/2|
EGc ceg|dec BdG/2F/2|EGc FAd|G2A/2B/2 B2:|
|:e/2f/2|gec dBG|gec dBG|gec e/2d/2c/2B/2A/2G/2|Bd^F G2G/2F/2|
EGc ceg|(de)c BdG/2F/2|EGc FAd|G2A/2B/2 c2:|

